X:23
T: Der Benzenauer
N: A0381D
O: Europa, Mitteleuropa, Deutschland
N: Anfang im Baseler Tenor von 1550.
R: Romanze, Ballade, Lied, Personenlied
M: 3/1
L: 1/2
K: D
D2 | G2G2G2 | G2A2B2 | =c4c2 | =c2c2c2 | d4
=c2 | B2A4 | G4G2 | G2G3D | z4

@@@ Tune index: 336
